src/main/resources/icons/GradleIcons/icons/gradleFile.svg

<svg xmlns="http://www.w3.org/2000/svg" width="16" height="16" viewBox="0 0 16 16">
  <path fill="#9AA7B0" fill-opacity=".8" fill-rule="evenodd" d="M14.6291209,3.18901099 C13.7327043,2.29250555 12.2870627,2.26771896 11.3604396,3.13296703 C11.3152865,3.1759076 11.2897252,3.23549093 11.2897252,3.2978022 C11.2897252,3.36011347 11.3152865,3.4196968 11.3604396,3.46263736 L11.643956,3.75274725 C11.7231667,3.83152916 11.8482945,3.83996474 11.9373626,3.77252747 C12.5022959,3.32127425 13.3226052,3.39593986 13.7967823,3.94177424 C14.2709593,4.48760862 14.2302016,5.31030007 13.7043956,5.80659341 C11.8368132,7.67252747 9.34450549,2.44065934 3.68736264,5.13736264 C3.49432879,5.23008524 3.34888725,5.3993344 3.28626138,5.604121 C3.22363551,5.80890759 3.24953676,6.03055516 3.35769231,6.21538462 L4.32857143,7.89175824 C4.53780584,8.25569786 5.00127872,8.38296898 5.36703297,8.17692308 L5.39010989,8.16373626 L5.37197802,8.17692308 L5.79725275,7.93956044 C6.27677592,7.64183594 6.73006329,7.30380047 7.1521978,6.92912088 C7.23851675,6.85043286 7.36925385,6.84623809 7.46043956,6.91923077 L7.46043956,6.91923077 C7.5087099,6.95971222 7.53739752,7.018879 7.53928662,7.08184887 C7.54117571,7.14481875 7.5160865,7.20559883 7.47032967,7.2489011 C7.02602633,7.64911599 6.54724302,8.00930666 6.03956044,8.32527473 L6.02472527,8.32527473 L5.59450549,8.56593407 C5.41280716,8.66796533 5.2078359,8.72133735 4.99945055,8.72087912 C4.56016448,8.7224574 4.15349312,8.48926563 3.93296703,8.10934066 L3.01483516,6.52527473 C1.25934066,7.77472527 0.181318681,10.1747253 0.764835165,13.2142857 C0.784593729,13.3199481 0.87657333,13.3967131 0.984065934,13.3972527 L2.01923077,13.3972527 C2.13759924,13.400323 2.23794367,13.3108071 2.24835165,13.1928571 C2.34895132,12.43126 2.99827094,11.8620691 3.76648352,11.8620691 C4.53469609,11.8620691 5.18401571,12.43126 5.28461538,13.1928571 C5.29796847,13.3047298 5.39282778,13.3889705 5.50549451,13.389011 L6.51758242,13.389011 C6.62996984,13.3882394 6.72441543,13.304366 6.73846154,13.1928571 C6.83906121,12.43126 7.48838083,11.8620691 8.25659341,11.8620691 C9.02480598,11.8620691 9.6741256,12.43126 9.77472527,13.1928571 C9.78877139,13.304366 9.88321697,13.3882394 9.9956044,13.389011 L11.0010989,13.389011 C11.1236317,13.3890242 11.2234728,13.2906514 11.2252747,13.1681319 C11.2483516,11.7505495 11.6307692,10.121978 12.7203297,9.30604396 C16.4950549,6.48241758 15.5027473,4.06263736 14.6291209,3.18901099 Z M10.7802198,7.4532967 L10.0598901,7.09230769 L10.0598901,7.09230769 C10.0597014,6.8795058 10.2080828,6.69544067 10.4160772,6.65046251 C10.6240715,6.60548435 10.8352462,6.71179653 10.9229983,6.90566309 C11.0107505,7.09952965 10.9512714,7.32835109 10.7802198,7.45494505 L10.7802198,7.4532967 Z"/>
</svg>

<svg xmlns="http://www.w3.org/2000/svg" width="16" height="16" viewBox="0 0 16 16"><rect id="frame" width="16" height="16" fill="none"/><path fill="#9AA7B0" fill-opacity=".8" fill-rule="evenodd" d="M14.63 3.189a2.352 2.352 0 0 0-3.27-.056.227.227 0 0 0 0 .33l.284.29c.08.079.204.087.293.02a1.348 1.348 0 0 1 1.767 2.034c-1.867 1.866-4.36-3.366-10.017-.67a.766.766 0 0 0-.33 1.078l.972 1.677a.765.765 0 0 0 1.038.285l.023-.013-.018.013.425-.237c.48-.298.933-.636 1.355-1.01a.237.237 0 0 1 .308-.01.22.22 0 0 1 .01.329c-.444.4-.923.76-1.43 1.076h-.015l-.43.24a1.228 1.228 0 0 1-1.662-.457l-.918-1.583c-1.756 1.25-2.834 3.65-2.25 6.69.02.105.112.182.22.182h1.034a.224.224 0 0 0 .23-.204 1.531 1.531 0 0 1 3.036 0 .223.223 0 0 0 .22.196h1.013a.224.224 0 0 0 .22-.196 1.531 1.531 0 0 1 3.037 0 .224.224 0 0 0 .22.196h1.006a.224.224 0 0 0 .224-.22c.023-1.418.406-3.047 1.495-3.863 3.775-2.824 2.783-5.243 1.91-6.117zm-3.85 4.264l-.72-.36a.452.452 0 1 1 .72.362v-.002z"/></svg>
